packages/foundations/assets/icons/functional/images/layout/fullscreen_32.svg

<svg width="32" height="32" viewBox="0 0 32 32" fill="none" xmlns="http://www.w3.org/2000/svg">
<g clip-path="url(#clip0_185_1319)">
<path fill-rule="evenodd" clip-rule="evenodd" d="M3 28V21C3 20.4054 3.4063 20 4 20C4.5938 20 5 20.4005 5 21V27H11C11.5625 27 12 27.4062 12 28C12 28.5625 11.625 29 11 29H4C3.4063 29 3 28.5954 3 28ZM29 28C29 28.5954 28.5938 29 28 29H21C20.375 29 20 28.5625 20 28C20 27.4062 20.4375 27 21 27H27V21C27 20.4005 27.4063 20 28 20C28.5938 20 29 20.4054 29 21V28ZM29 4V11C29 11.5946 28.5938 12 28 12C27.4063 12 27 11.5995 27 11V5H21C20.4375 5 20 4.5938 20 4C20 3.4375 20.375 3 21 3H28C28.5938 3 29 3.4046 29 4ZM3 4C3 3.4046 3.4063 3 4 3H11C11.625 3 12 3.4375 12 4C12 4.5938 11.5625 5 11 5H5V11C5 11.5995 4.5938 12 4 12C3.4063 12 3 11.5946 3 11V4Z" fill="#1A1C1F"/>
</g>
<defs>
<clipPath id="clip0_185_1319">
<rect width="32" height="32" fill="white"/>
</clipPath>
</defs>
</svg>

<svg xmlns="http://www.w3.org/2000/svg" width="32" height="32" fill="none"><g clip-path="url(#a)"><path fill="#1A1C1F" fill-rule="evenodd" d="M3 28v-7c0-.595.406-1 1-1s1 .4 1 1v6h6c.563 0 1 .406 1 1 0 .563-.375 1-1 1H4c-.594 0-1-.405-1-1m26 0c0 .595-.406 1-1 1h-7c-.625 0-1-.437-1-1 0-.594.438-1 1-1h6v-6c0-.6.406-1 1-1s1 .405 1 1zm0-24v7c0 .595-.406 1-1 1s-1-.4-1-1V5h-6c-.562 0-1-.406-1-1 0-.562.375-1 1-1h7c.594 0 1 .405 1 1M3 4c0-.595.406-1 1-1h7c.625 0 1 .438 1 1 0 .594-.437 1-1 1H5v6c0 .6-.406 1-1 1s-1-.405-1-1z" clip-rule="evenodd"/></g><defs><clipPath id="a"><path fill="#fff" d="M0 0h32v32H0z"/></clipPath></defs></svg>
